X: 34930
T: Rocking The Boat
R: jig
M: 6/8
K: Amajor
AEE ABc|AEE ABc|AFF d2 B|cBA BAF|
AEE ABc|AEE ABc|e2 c e2 c|BAF FEF:|
cde A3|ecA FEF|cde A3|ecA BAF|
cde A3|ecA FEF|e2 c e2 c|BAF FEF||
cde A3|ecA FEF|cde Aaf|ecA cBB|
cde A3|ecA FEF|e2 c e2 c|BAF FEF||

